lib/logo_tmp/nrk-logo-nrk-trafikk-title-below-on-dark.svg

<svg width="61" height="35" viewBox="0 0 61 35" fill="none" xmlns="http://www.w3.org/2000/svg">
<path d="M0 14.3333V0.334605H4.59339V14.3333H0ZM10.8428 2.56258L13.4844 14.3333H8.45737L5.30307 0.334605H8.12254C8.76907 0.326214 9.39641 0.554123 9.88691 0.975455C10.3782 1.37911 10.7158 1.93948 10.8428 2.56258ZM14.1744 14.3333V0.334605H18.7678V14.3333H14.1744ZM22.2372 5.65812C21.7422 5.66294 21.2552 5.53343 20.828 5.28346C20.4064 5.03981 20.0563 4.68962 19.8127 4.26803C19.5624 3.84072 19.4329 3.35355 19.4378 2.85837C19.4321 2.3662 19.5618 1.88194 19.8127 1.4585C20.0589 1.04149 20.4086 0.695109 20.828 0.452939C21.2553 0.203253 21.7423 0.073767 22.2372 0.0782812C22.7292 0.0729823 23.2133 0.202584 23.6369 0.452939C24.0521 0.697232 24.3981 1.04332 24.6424 1.4585C24.893 1.88206 25.0226 2.36624 25.0172 2.85837C25.0218 3.35352 24.8923 3.8406 24.6424 4.26803C24.4007 4.68777 24.0542 5.03766 23.6369 5.28346C23.2133 5.53431 22.7289 5.66394 22.2366 5.65812H22.2372ZM25.7269 14.3333V0.334605H30.3207V14.3333H25.7269ZM36.136 7.98461C36.1489 7.99819 36.2475 8.1592 36.4317 8.46765C36.6159 8.7761 36.8558 9.17046 37.1513 9.65067C37.447 10.1307 37.759 10.64 38.0874 11.1787C38.4157 11.7174 38.7247 12.2268 39.0143 12.7067C39.3028 13.1867 39.6313 13.7289 40 14.3333H34.9531C34.6375 13.8207 34.3515 13.3574 34.0952 12.9433C33.8389 12.5293 33.5665 12.0823 33.2778 11.6026C32.9884 11.1233 32.7024 10.6566 32.4196 10.2027C32.1368 9.74879 31.8938 9.35121 31.6905 9.0099C31.4863 8.66837 31.3449 8.43831 31.2663 8.31979C31.0713 8.02568 30.9559 7.68601 30.9315 7.33397C30.951 6.99609 31.0597 6.66947 31.2466 6.3873C31.3254 6.25585 31.47 6.0225 31.6803 5.68732C31.8906 5.35214 32.137 4.95456 32.4196 4.49451C32.7021 4.03446 32.9882 3.56454 33.2778 3.08477C33.5674 2.605 33.8398 2.15477 34.0952 1.73416C34.3519 1.31398 34.6379 0.84735 34.9531 0.334284H40L36.0962 6.70275C35.9754 6.89183 35.9073 7.10974 35.8991 7.33397C35.9121 7.56938 35.9942 7.7957 36.1353 7.98461H36.136Z" fill="white"/>
<path d="M11.1376 20.3961H0V22.1295H4.53795V34.3814H6.61876V22.1295H11.1373L11.1376 20.3961Z" fill="#9FDAF5"/>
<path d="M15.2003 24.2668C14.8298 24.3659 14.4758 24.5185 14.1499 24.7199C13.8119 24.9297 13.4995 25.1776 13.2186 25.4585C13.1717 25.5052 13.126 25.5571 13.0798 25.606V24.1389L11.0584 24.4343V34.3815H13.0798V26.9398C13.2299 26.8356 13.3854 26.739 13.5455 26.6506C13.7436 26.5419 13.9487 26.4463 14.1595 26.3646C14.3646 26.2858 14.5724 26.2169 14.7842 26.1582C15.0016 26.0978 15.2237 26.0548 15.4481 26.0298C15.6882 26.0034 15.9301 25.9968 16.1714 26.0101L16.4092 24.1585C16.003 24.1297 15.5948 24.1662 15.2003 24.2668Z" fill="#9FDAF5"/>
<path d="M26.5758 33.1403C26.431 33.1536 26.285 33.1318 26.1505 33.077C26.0159 33.0221 25.8966 32.9357 25.8029 32.8251C25.6192 32.5095 25.5427 32.1434 25.5849 31.7812L25.6245 27.7235C25.6289 27.2981 25.5756 26.8741 25.466 26.4628C25.3698 26.1022 25.2087 25.7618 24.9904 25.4583C24.7699 25.1614 24.4898 24.9133 24.168 24.7295C23.794 24.5183 23.3897 24.3655 22.969 24.2764C22.4547 24.1663 21.9295 24.1135 21.4033 24.1192C20.986 24.1189 20.5692 24.1451 20.1552 24.1976C19.7639 24.2465 19.3764 24.3222 18.9955 24.4242C18.6425 24.5193 18.2952 24.6344 17.9554 24.7688L17.7172 26.4431C18.0475 26.3249 18.3614 26.2265 18.6586 26.1477C18.9559 26.0689 19.2432 26.0032 19.5207 25.9507C19.7925 25.8989 20.0671 25.8628 20.3431 25.8427C20.6137 25.8228 20.8814 25.8128 21.1461 25.8128C21.5502 25.8043 21.9536 25.8506 22.345 25.9507C22.6305 26.0219 22.893 26.1642 23.1077 26.3643C23.2989 26.5591 23.4355 26.8002 23.5041 27.0636C23.5889 27.3884 23.629 27.7231 23.6233 28.0587L23.621 28.5511L21.3043 28.707C20.512 28.7292 19.7315 28.9031 19.0055 29.2192C18.4622 29.4555 17.9932 29.8332 17.6479 30.3124C17.355 30.7389 17.1995 31.2438 17.202 31.7602C17.1983 32.2447 17.3176 32.7223 17.5488 33.1488C17.7913 33.587 18.156 33.9461 18.5991 34.183C19.1398 34.4624 19.744 34.5981 20.353 34.5769C20.9238 34.5899 21.4919 34.4964 22.028 34.3011C22.4913 34.121 22.9151 33.8534 23.2762 33.5132C23.4133 33.3825 23.5433 33.2448 23.6659 33.1006C23.7045 33.3045 23.7771 33.5005 23.8806 33.6807C24.0571 33.9823 24.3288 34.2177 24.6535 34.3504C25.0123 34.4936 25.3964 34.5639 25.7831 34.5572C25.902 34.5572 26.0177 34.5539 26.1302 34.5474C26.2404 34.541 26.3498 34.5245 26.4569 34.4981C26.5626 34.4718 26.6581 34.4489 26.7443 34.4292C26.8219 34.412 26.8981 34.3889 26.9722 34.3602L27.1905 33.0405C27.0809 33.0777 26.968 33.1041 26.8532 33.1193C26.7613 33.1321 26.6687 33.1391 26.5758 33.1403ZM23.6055 31.9437C23.5046 32.0563 23.3941 32.1601 23.2752 32.2539C23.0603 32.4227 22.8277 32.5679 22.5816 32.6872C22.3364 32.8058 22.0766 32.8919 21.8089 32.9433C21.5314 32.9966 21.2494 33.023 20.9668 33.0221C20.6437 33.0313 20.3224 32.9708 20.0251 32.8448C19.7833 32.7406 19.5794 32.5653 19.4407 32.3426C19.3033 32.1065 19.2347 31.8371 19.2425 31.5645C19.2234 31.2361 19.314 30.9107 19.5002 30.6387C19.7159 30.3884 20.0083 30.2154 20.3325 30.1463C20.8388 30.0279 21.3584 29.9749 21.8784 29.9887H23.6137L23.6055 31.9437Z" fill="#9FDAF5"/>
<path d="M34.0369 19.6674C33.8321 19.628 33.6241 19.5985 33.4127 19.5788C33.2013 19.5591 32.9767 19.5492 32.7388 19.5492C32.3083 19.5464 31.8801 19.613 31.4709 19.7462C31.0819 19.8734 30.7263 20.0854 30.4304 20.3667C30.124 20.663 29.8873 21.0228 29.7368 21.4205C29.5616 21.8999 29.4775 22.4075 29.4891 22.9175V24.3357H28.0028V25.8721H29.4891V34.3814H31.5105V25.8721H34.2849V24.3357H31.5105V22.7008C31.5061 22.4761 31.5431 22.2525 31.6195 22.041C31.6842 21.8622 31.7892 21.7005 31.9263 21.5682C32.07 21.437 32.2435 21.3424 32.432 21.2924C32.6545 21.2311 32.8846 21.2013 33.1154 21.2038C33.2743 21.2038 33.4255 21.2107 33.5715 21.2235C33.7175 21.2363 33.8586 21.2563 33.9976 21.2826C34.1367 21.3088 34.2681 21.3351 34.394 21.3614C34.5059 21.3835 34.6154 21.4165 34.721 21.4599L34.6417 19.825C34.4438 19.7593 34.2417 19.7067 34.0369 19.6674Z" fill="#9FDAF5"/>
<path d="M36.2464 34.3815H38.2678V24.1389L36.2464 24.4343V34.3815Z" fill="#9FDAF5"/>
<path d="M37.9805 20.0119C37.7748 19.887 37.5378 19.8222 37.2968 19.8248C37.0527 19.8229 36.8127 19.8876 36.6031 20.0119C36.3965 20.1323 36.2229 20.3014 36.0978 20.5044C35.9719 20.7088 35.9067 20.9443 35.9095 21.184C35.9074 21.4266 35.9725 21.6651 36.0978 21.8734C36.219 22.0794 36.3935 22.2494 36.6031 22.3658C36.8148 22.4841 37.054 22.5452 37.2968 22.5431C37.5365 22.5459 37.7727 22.4847 37.9805 22.3658C38.1844 22.2485 38.3522 22.0783 38.466 21.8734C38.5851 21.663 38.6466 21.4253 38.6444 21.184C38.6473 20.9456 38.5857 20.7109 38.466 20.5044C38.3483 20.3024 38.1813 20.133 37.9805 20.0119Z" fill="#9FDAF5"/>
<path d="M49.9801 24.3356H47.5029L44.1118 28.0388H43.3808V19.5097L41.3594 19.8052V34.3814H43.3808V29.5555H43.4139L47.463 34.3814H50.0789L45.2718 28.9974L49.9801 24.3356Z" fill="#9FDAF5"/>
<path d="M55.6761 28.9456L60.3844 24.2838H57.9072L54.5161 27.9869H53.7851V19.4583L51.7637 19.7537V34.3299H53.7851V29.504H53.8181L57.8673 34.3299H60.4832L55.6761 28.9456Z" fill="#9FDAF5"/>
</svg>

<svg xmlns="http://www.w3.org/2000/svg" viewBox="0 0 61 35"><path fill="#fff" d="M0 14.333V.335h4.593v13.998H0Zm10.843-11.77 2.641 11.77H8.457L5.303.335h2.82a2.655 2.655 0 0 1 1.764.64c.491.404.829.964.956 1.588Zm3.331 11.77V.335h4.594v13.998h-4.594Zm8.063-8.675a2.738 2.738 0 0 1-1.409-.375 2.778 2.778 0 0 1-1.015-1.015 2.735 2.735 0 0 1-.375-1.41 2.685 2.685 0 0 1 .375-1.4A2.812 2.812 0 0 1 23.637.454c.415.244.761.59 1.005 1.005.251.424.38.908.375 1.4.005.496-.125.983-.375 1.41a2.8 2.8 0 0 1-1.005 1.015c-.424.251-.908.38-1.4.375Zm3.49 8.675V.335h4.594v13.998h-4.594Zm10.409-6.348c.013.013.111.174.296.483.184.308.424.702.72 1.183a386.846 386.846 0 0 1 1.862 3.056c.289.48.617 1.022.986 1.626h-5.047l-.858-1.39c-.256-.414-.529-.86-.817-1.34-.29-.48-.576-.946-.858-1.4a71.148 71.148 0 0 1-.73-1.193 21.112 21.112 0 0 0-.424-.69 2.04 2.04 0 0 1-.334-.986c.019-.338.128-.665.315-.947.078-.131.223-.364.433-.7a216.7 216.7 0 0 0 1.598-2.603l.817-1.35.858-1.4H40l-3.904 6.369c-.12.189-.189.407-.197.631.013.235.095.462.236.65h.001Z"/><path fill="#9FDAF5" d="M11.138 20.396H0v1.733h4.538v12.252h2.08V22.13h4.52v-1.733ZM15.2 24.267c-.37.099-.724.252-1.05.453-.338.21-.65.458-.931.739-.047.046-.093.098-.14.147v-1.467l-2.02.295v9.948h2.02V26.94a5.131 5.131 0 0 1 1.08-.575c.206-.08.413-.148.625-.207a4.23 4.23 0 0 1 1.387-.148l.238-1.852a3.804 3.804 0 0 0-1.209.109ZM26.576 33.14a.908.908 0 0 1-.773-.315 1.687 1.687 0 0 1-.218-1.044l.04-4.057a4.707 4.707 0 0 0-.159-1.261 3.08 3.08 0 0 0-.476-1.005 2.68 2.68 0 0 0-.822-.728 4.214 4.214 0 0 0-1.199-.454 7.112 7.112 0 0 0-1.566-.157c-.417 0-.834.026-1.248.079a8.612 8.612 0 0 0-1.16.226c-.353.095-.7.21-1.04.345l-.238 1.674a11.715 11.715 0 0 1 1.804-.492c.271-.052.546-.088.822-.108.27-.02.538-.03.803-.03a4.46 4.46 0 0 1 1.199.138c.286.07.548.213.763.413.19.195.328.436.396.7.085.324.125.66.12.995l-.003.492-2.317.156a6.193 6.193 0 0 0-2.298.512 3.29 3.29 0 0 0-1.358 1.093 2.535 2.535 0 0 0-.446 1.448c-.004.485.116.962.347 1.389.242.438.607.797 1.05 1.034.54.28 1.145.415 1.754.394.57.013 1.139-.08 1.675-.276a3.86 3.86 0 0 0 1.248-.788c.137-.13.267-.268.39-.412.038.203.111.4.215.58.176.301.448.537.773.67.358.143.742.213 1.13.206.118 0 .234-.003.346-.01.11-.006.22-.022.327-.049.106-.026.201-.05.287-.069.078-.017.154-.04.228-.069l.218-1.32c-.11.038-.222.064-.337.08-.092.012-.184.02-.277.02Zm-2.97-1.196c-.101.112-.212.216-.33.31a3.821 3.821 0 0 1-.694.433 3.13 3.13 0 0 1-.773.256 4.39 4.39 0 0 1-.842.08 2.25 2.25 0 0 1-.942-.178 1.29 1.29 0 0 1-.584-.502 1.464 1.464 0 0 1-.198-.779c-.02-.328.071-.653.257-.925.216-.25.508-.424.832-.493a6.08 6.08 0 0 1 1.546-.157h1.736l-.009 1.955ZM34.037 19.667a6.488 6.488 0 0 0-1.298-.118 4.012 4.012 0 0 0-1.268.197c-.39.127-.745.34-1.04.62a2.888 2.888 0 0 0-.694 1.055 4.09 4.09 0 0 0-.248 1.497v1.418h-1.486v1.536h1.486v8.51h2.021v-8.51h2.775v-1.536H31.51V22.7a1.836 1.836 0 0 1 .108-.66c.065-.179.17-.34.307-.473a1.21 1.21 0 0 1 .506-.276c.222-.06.453-.09.683-.088.16 0 .31.007.456.02.147.012.288.032.427.059.139.026.27.052.396.078.112.023.221.055.327.099l-.08-1.635a4.777 4.777 0 0 0-.604-.158ZM36.246 34.382h2.022V24.139l-2.022.295v9.948ZM37.98 20.012a1.29 1.29 0 0 0-.683-.187 1.34 1.34 0 0 0-.694.187c-.206.12-.38.29-.505.492-.126.205-.191.44-.188.68-.003.243.063.481.188.69.121.205.296.375.505.492.212.118.451.18.694.177.24.003.476-.058.684-.177.203-.117.371-.288.485-.493.12-.21.18-.448.178-.689a1.323 1.323 0 0 0-.178-.68 1.396 1.396 0 0 0-.486-.492ZM49.98 24.336h-2.477l-3.391 3.703h-.731v-8.53l-2.022.296v14.576h2.022v-4.826h.033l4.049 4.826h2.616l-4.807-5.384 4.708-4.661ZM55.676 28.946l4.708-4.662h-2.477l-3.39 3.703h-.732v-8.529l-2.021.296V34.33h2.021v-4.826h.033l4.05 4.826h2.615l-4.807-5.384Z"/></svg>
